libs/shared/images/icons-sharp-light/mobile-retro.svg

<svg xmlns="http://www.w3.org/2000/svg" viewBox="0 0 320 512"><defs><style>.fa-secondary{opacity:.4}</style></defs><path class="fa-secondary" d="M0 0L320 0l0 512L0 512 0 0zM56 304l0 48 48 0 0-48-48 0zm0 80l0 48 48 0 0-48-48 0zm8-256l0 128 192 0 0-128L64 128zm48-80l0 32 16 0 64 0 16 0 0-32-16 0-64 0-16 0zm24 256l0 48 48 0 0-48-48 0zm0 80l0 48 48 0 0-48-48 0zm80-80l0 48 48 0 0-48-48 0zm0 80l0 48 48 0 0-48-48 0z"/><path class="fa-primary" d="M64 128H256V256H64V128z"/></svg>

<svg xmlns="http://www.w3.org/2000/svg" viewBox="0 0 320 512"><path d="M288 32V480H32V32H288zM32 0H0V32 480v32H32 288h32V480 32 0H288 32zM224 160v64H96V160H224zM96 128H64v32 64 32H96 224h32V224 160 128H224 96zm8 176H56v48h48V304zM56 384v48h48V384H56zm128-80H136v48h48V304zm-48 80v48h48V384H136zm128-80H216v48h48V304zm-48 80v48h48V384H216zM128 64H112V96h16 64 16V64H192 128z"/></svg>
